X:108
T:Cabar F\'eidh
R:Reel
B:The Athole Collection
M:C|
L:1/8
K:C
G|~c2ed ~c2GB|~c2GF ECCE|Ddd^c d2Ac|d2AG FDDB|
~c2ed ~c2GB|cGAF ECCE|DEFG ABcA|d2 AG FDD||
f|ecgc acgc|ecgc ecce|fdad bdad|fgag fddf|ecgc acgc|GAcd eccg|
afge fdf^c|d2AG FDD||

